flaticon/business/calculator.svg

<svg xmlns="http://www.w3.org/2000/svg" width="32" height="32" viewBox="0 0 24 24">
    <path d="M 2.277344 0 L 2.277344 24 L 21.722656 24 L 21.722656 0 Z M 3.101562 9.101562 L 8.484375 9.101562 L 8.484375 15.722656 L 3.101562 15.722656 Z M 14.691406 15.722656 L 9.308594 15.722656 L 9.308594 9.101562 L 14.691406 9.101562 Z M 3.101562 23.171875 L 3.101562 16.550781 L 8.484375 16.550781 L 8.484375 23.171875 Z M 9.308594 23.171875 L 9.308594 16.550781 L 14.691406 16.550781 L 14.691406 23.171875 Z M 20.898438 23.171875 L 15.515625 23.171875 L 15.515625 9.101562 L 20.898438 9.101562 Z M 15.515625 8.277344 L 3.101562 8.277344 L 3.101562 0.828125 L 20.898438 0.828125 L 20.898438 8.277344 Z M 15.515625 8.277344"/>
    <path d="M 4.34375 2.070312 L 4.34375 7.035156 L 19.65625 7.035156 L 19.65625 2.070312 Z M 18.828125 6.207031 L 5.171875 6.207031 L 5.171875 2.898438 L 18.828125 2.898438 Z M 18.828125 6.207031"/>
</svg>

<svg xmlns="http://www.w3.org/2000/svg" width="32" height="32" viewBox="0 0 24 24">
    <path d="M2.277 0v24h19.446V0zm.825 9.102h5.382v6.62H3.102zm11.59 6.62H9.308v-6.62h5.382zm-11.59 7.45V16.55h5.382v6.62zm6.207 0V16.55h5.382v6.62zm11.59 0h-5.383V9.102h5.382zM15.515 8.277H3.102V.828h17.796v7.45zm0 0"/>
    <path d="M4.344 2.07v4.965h15.312V2.07zm14.484 4.137H5.172V2.898h13.656zm0 0"/>
</svg>
